apps/explorer/src/assets/img/Dex.svg

<svg fill="none" height="50" viewBox="0 0 50 50" width="50" xmlns="http://www.w3.org/2000/svg"><circle cx="25" cy="25" fill="#41c29b" r="25"/><g fill="#000"><path d="m18.1047 30.4684h-2.6184v-7.3864h2.6401c.7429 0 1.3825.1479 1.9187.4436.5362.2934.9485.7154 1.2371 1.266.2909.5506.4364 1.2094.4364 1.9764 0 .7694-.1455 1.4306-.4364 1.9836-.2886.5531-.7033.9774-1.2443 1.2732-.5386.2957-1.183.4436-1.9332.4436zm-1.0567-1.3381h.9918c.4617 0 .85-.0817 1.165-.2452.3173-.1659.5554-.422.7141-.7682.1611-.3487.2416-.7983.2416-1.3489 0-.5458-.0805-.9918-.2416-1.3381-.1587-.3462-.3956-.6011-.7105-.7646-.315-.1635-.7033-.2452-1.165-.2452h-.9954z"/><path d="m22.8754 30.4684v-7.3864h4.9771v1.2876h-3.4154v1.76h3.1594v1.2876h-3.1594v1.7636h3.4299v1.2876z"/><path d="m30.5584 23.082 1.4895 2.5175h.0577l1.4968-2.5175h1.7636l-2.2541 3.6932 2.3046 3.6932h-1.7961l-1.5148-2.521h-.0577l-1.5147 2.521h-1.7889l2.3118-3.6932-2.2685-3.6932z"/><path clip-rule="evenodd" d="m17.1875 17.1875h-4.6875v1.5625h4.6875zm-4.6875-1.5625c-.8629 0-1.5625.6996-1.5625 1.5625v1.5625c0 .8629.6996 1.5625 1.5625 1.5625h4.6875c.8629 0 1.5625-.6996 1.5625-1.5625v-1.5625c0-.8629-.6996-1.5625-1.5625-1.5625z" fill-rule="evenodd"/><path clip-rule="evenodd" d="m27.3438 17.1875h-4.6876v1.5625h4.6876zm-4.6876-1.5625c-.8629 0-1.5624.6996-1.5624 1.5625v1.5625c0 .8629.6995 1.5625 1.5624 1.5625h4.6876c.8629 0 1.5624-.6996 1.5624-1.5625v-1.5625c0-.8629-.6995-1.5625-1.5624-1.5625z" fill-rule="evenodd"/><path clip-rule="evenodd" d="m37.5 17.1875h-4.6875v1.5625h4.6875zm-4.6875-1.5625c-.8629 0-1.5625.6996-1.5625 1.5625v1.5625c0 .8629.6996 1.5625 1.5625 1.5625h4.6875c.8629 0 1.5625-.6996 1.5625-1.5625v-1.5625c0-.8629-.6996-1.5625-1.5625-1.5625z" fill-rule="evenodd"/><path clip-rule="evenodd" d="m40.625 20.3125h-31.25v12.5h31.25zm-31.25-1.5625c-.86294 0-1.5625.6996-1.5625 1.5625v12.5c0 .8629.69956 1.5625 1.5625 1.5625h31.25c.8629 0 1.5625-.6996 1.5625-1.5625v-12.5c0-.8629-.6996-1.5625-1.5625-1.5625z" fill-rule="evenodd"/></g></svg>

<svg width="50" height="50" viewBox="0 0 50 50" fill="none" xmlns="http://www.w3.org/2000/svg">
<circle cx="25" cy="25" r="25" fill="#41C29B"/>
<path d="M18.1047 30.4684H15.4863V23.082H18.1264C18.8693 23.082 19.5089 23.2299 20.0451 23.5256C20.5813 23.819 20.9936 24.241 21.2822 24.7916C21.5731 25.3422 21.7186 26.001 21.7186 26.768C21.7186 27.5374 21.5731 28.1986 21.2822 28.7516C20.9936 29.3047 20.5789 29.729 20.0379 30.0248C19.4993 30.3205 18.8549 30.4684 18.1047 30.4684ZM17.048 29.1303H18.0398C18.5015 29.1303 18.8898 29.0486 19.2048 28.8851C19.5221 28.7192 19.7602 28.4631 19.9189 28.1169C20.08 27.7682 20.1605 27.3186 20.1605 26.768C20.1605 26.2222 20.08 25.7762 19.9189 25.4299C19.7602 25.0837 19.5233 24.8288 19.2084 24.6653C18.8934 24.5018 18.5051 24.4201 18.0434 24.4201H17.048V29.1303Z" fill="black"/>
<path d="M22.8754 30.4684V23.082H27.8525V24.3696H24.4371V26.1296H27.5965V27.4172H24.4371V29.1808H27.867V30.4684H22.8754Z" fill="black"/>
<path d="M30.5584 23.082L32.0479 25.5995H32.1056L33.6024 23.082H35.366L33.1119 26.7752L35.4165 30.4684H33.6204L32.1056 27.9474H32.0479L30.5332 30.4684H28.7443L31.0561 26.7752L28.7876 23.082H30.5584Z" fill="black"/>
<path fill-rule="evenodd" clip-rule="evenodd" d="M17.1875 17.1875H12.5L12.5 18.75H17.1875V17.1875ZM12.5 15.625C11.6371 15.625 10.9375 16.3246 10.9375 17.1875V18.75C10.9375 19.6129 11.6371 20.3125 12.5 20.3125H17.1875C18.0504 20.3125 18.75 19.6129 18.75 18.75V17.1875C18.75 16.3246 18.0504 15.625 17.1875 15.625H12.5Z" fill="black"/>
<path fill-rule="evenodd" clip-rule="evenodd" d="M27.3438 17.1875H22.6562L22.6562 18.75H27.3438V17.1875ZM22.6562 15.625C21.7933 15.625 21.0938 16.3246 21.0938 17.1875V18.75C21.0938 19.6129 21.7933 20.3125 22.6562 20.3125H27.3438C28.2067 20.3125 28.9062 19.6129 28.9062 18.75V17.1875C28.9062 16.3246 28.2067 15.625 27.3438 15.625H22.6562Z" fill="black"/>
<path fill-rule="evenodd" clip-rule="evenodd" d="M37.5 17.1875H32.8125L32.8125 18.75H37.5V17.1875ZM32.8125 15.625C31.9496 15.625 31.25 16.3246 31.25 17.1875V18.75C31.25 19.6129 31.9496 20.3125 32.8125 20.3125H37.5C38.3629 20.3125 39.0625 19.6129 39.0625 18.75V17.1875C39.0625 16.3246 38.3629 15.625 37.5 15.625H32.8125Z" fill="black"/>
<path fill-rule="evenodd" clip-rule="evenodd" d="M40.625 20.3125H9.375V32.8125H40.625V20.3125ZM9.375 18.75C8.51206 18.75 7.8125 19.4496 7.8125 20.3125V32.8125C7.8125 33.6754 8.51206 34.375 9.375 34.375H40.625C41.4879 34.375 42.1875 33.6754 42.1875 32.8125V20.3125C42.1875 19.4496 41.4879 18.75 40.625 18.75H9.375Z" fill="black"/>
</svg>
